src/theme/images/streamlineIcons/list-fill.svg

<svg fill="none" height="24" viewBox="0 0 24 24" width="24" xmlns="http://www.w3.org/2000/svg"><g fill="#212121"><path d="m0 2c0-.55228.447715-1 1-1h22c.5523 0 1 .44772 1 1v3.5c0 .55228-.4477 1-1 1h-22c-.552284 0-1-.44772-1-1z"/><path d="m0 10.501c0-.55231.447715-1.00002 1-1.00002h22c.5523 0 1 .44771 1 1.00002v3.5c0 .5523-.4477 1-1 1h-22c-.552284 0-1-.4477-1-1z"/><path d="m0 19.001c0-.5523.447715-1 1-1h22c.5523 0 1 .4477 1 1v3.5c0 .5523-.4477 1-1 1h-22c-.552284 0-1-.4477-1-1z"/></g></svg>

<svg width="24" height="24" viewBox="0 0 24 24" fill="none" xmlns="http://www.w3.org/2000/svg">
<path d="M0 2C0 1.44772 0.447715 1 1 1H23C23.5523 1 24 1.44772 24 2V5.5C24 6.05228 23.5523 6.5 23 6.5H1C0.447716 6.5 0 6.05228 0 5.5V2Z" fill="#212121"/>
<path d="M0 10.501C0 9.94869 0.447715 9.50098 1 9.50098H23C23.5523 9.50098 24 9.94869 24 10.501V14.001C24 14.5533 23.5523 15.001 23 15.001H1C0.447716 15.001 0 14.5533 0 14.001V10.501Z" fill="#212121"/>
<path d="M0 19.001C0 18.4487 0.447715 18.001 1 18.001H23C23.5523 18.001 24 18.4487 24 19.001V22.501C24 23.0533 23.5523 23.501 23 23.501H1C0.447716 23.501 0 23.0533 0 22.501V19.001Z" fill="#212121"/>
</svg>
